X:0043
M:6/8
L:1/8
Q:3/8=120
K:A Mixolydian
g|fed cAc|ecA A2g|fed cAc|dBG G2
g|fed cAc|def gfe|agf gfe|dBG G2:|

